.local/share/icons/Gruvbox-Plus-Dark/actions/16/view-media-genre.svg

<svg xmlns="http://www.w3.org/2000/svg" width="16" height="16" version="1.1">
 <defs>
  <style id="current-color-scheme" type="text/css">
   .ColorScheme-Text { color:#555555; } .ColorScheme-Highlight { color:#4285f4; } .ColorScheme-NeutralText { color:#ff9800; } .ColorScheme-PositiveText { color:#4caf50; } .ColorScheme-NegativeText { color:#f44336; }
  </style>
 </defs>
 <path style="fill:currentColor" class="ColorScheme-Text" d="M 8 0 A 8 8 0 0 0 0 8 A 8 8 0 0 0 8 16 A 8 8 0 0 0 16 8 A 8 8 0 0 0 8 0 z M 8 2 A 6 6 0 0 1 13.705078 6.1484375 L 9.7734375 5.5722656 L 8 2 z M 8 2 L 6.2265625 5.5722656 L 2.2929688 6.1484375 A 6 6 0 0 1 8 2 z M 2.2871094 6.1738281 L 5.1328125 8.9707031 L 4.4570312 12.839844 A 6 6 0 0 1 2 8 A 6 6 0 0 1 2.2871094 6.1738281 z M 13.712891 6.1738281 A 6 6 0 0 1 14 8 A 6 6 0 0 1 11.542969 12.839844 L 10.867188 8.9707031 L 13.712891 6.1738281 z M 8 11.070312 L 11.537109 12.845703 A 6 6 0 0 1 8 14 A 6 6 0 0 1 4.4628906 12.845703 L 8 11.070312 z"/>
</svg>

<svg width="16" height="16" version="1.1" xmlns="http://www.w3.org/2000/svg">
  <defs>
    <style id="current-color-scheme" type="text/css">.ColorScheme-Text { color:#ebdbb2; } .ColorScheme-Highlight { color:#458588; }</style>
  </defs>
  <path class="ColorScheme-Text" d="m8 0a8 8 0 0 0-8 8 8 8 0 0 0 8 8 8 8 0 0 0 8-8 8 8 0 0 0-8-8zm0 2a6 6 0 0 1 5.705 4.148l-3.932-0.5762zm0 0-1.773 3.572-3.934 0.5762a6 6 0 0 1 5.707-4.148zm-5.713 4.174 2.846 2.797-0.6758 3.869a6 6 0 0 1-2.457-4.84 6 6 0 0 1 0.2871-1.826zm11.43 0a6 6 0 0 1 0.2871 1.826 6 6 0 0 1-2.457 4.84l-0.6758-3.869zm-5.713 4.896 3.537 1.775a6 6 0 0 1-3.537 1.154 6 6 0 0 1-3.537-1.154z" fill="currentColor"/>
</svg>
